X:4
T:T203- The Dawning of the Day
S:S. Holden's A Collection of Old Established Irish Slow And
Quick Tunes, c 1805
L:1/4
M:C
%J:1#
K:G
d|d3/2c/ B3/4A/4B3/4^d/4|eEEG3/4A/4|Bd3/4c/4 B3/4A/4G3/4A/4|\
G2G::\
d|g3/2f/e3/2^e/2|f3/2d/B3/2B/|ccB/A/G/^d|e2ef3/2/e/2|\
d3/2c/ B3/4A/4B/^d/|eDDG3/4A/4|B/e/d3/4c/4B"tr"A|G2G|]

